public/icons/shield-check.svg

<svg width="24" height="25" viewBox="0 0 24 25" fill="none" xmlns="http://www.w3.org/2000/svg">
<g clip-path="url(#clip0_573_369)">
<path d="M22.1947 6.84482L22.194 6.82614C22.1835 6.59561 22.1766 6.35171 22.1724 6.08035C22.1528 4.75705 21.1008 3.66245 19.7773 3.58848C17.018 3.43449 14.8833 2.53471 13.0594 0.756942L13.0438 0.74211C12.4489 0.19664 11.5515 0.19664 10.9564 0.74211L10.9409 0.756942C9.11698 2.53471 6.98234 3.43449 4.22295 3.58866C2.89965 3.66245 1.84753 4.75705 1.82793 6.08053C1.8239 6.35007 1.81676 6.59396 1.80633 6.82614L1.80523 6.86953C1.75158 9.68331 1.68493 13.1852 2.85643 16.3637C3.5006 18.1116 4.47618 19.631 5.7559 20.88C7.21342 22.3024 9.12247 23.4316 11.43 24.2361C11.505 24.2623 11.583 24.2835 11.6625 24.2995C11.7746 24.3218 11.8874 24.333 12.0001 24.333C12.1129 24.333 12.2259 24.3218 12.3378 24.2995C12.4173 24.2835 12.4958 24.2621 12.5713 24.2358C14.876 23.4297 16.783 22.3 18.2393 20.8778C19.5184 19.6285 20.494 18.1087 21.1387 16.3604C22.3146 13.1724 22.2482 9.6639 22.1947 6.84482ZM19.8174 15.8732C18.5819 19.2233 16.0596 21.524 12.1065 22.9064C12.0924 22.9112 12.0774 22.9154 12.0619 22.9185C12.021 22.9266 11.9795 22.9266 11.9381 22.9183C11.9227 22.9152 11.9077 22.9112 11.8938 22.9064C7.9365 21.5265 5.41258 19.2271 4.1779 15.8768C3.09813 12.947 3.15929 9.73238 3.21331 6.89645L3.21367 6.8807C3.22466 6.63699 3.23198 6.38174 3.23601 6.10123C3.2448 5.51364 3.71282 5.0275 4.3015 4.99472C5.86302 4.90756 7.23484 4.60581 8.49533 4.07224C9.75418 3.5394 10.8722 2.78831 11.913 1.7761C11.9659 1.73143 12.0346 1.73124 12.0873 1.7761C13.1283 2.78831 14.2463 3.5394 15.505 4.07224C16.7655 4.60581 18.1373 4.90756 19.699 4.99472C20.2877 5.0275 20.7557 5.51364 20.7643 6.10141C20.7685 6.38339 20.7758 6.63864 20.7868 6.8807C20.8406 9.71993 20.9003 12.9371 19.8174 15.8732Z" fill="#AE9F91"/>
<path d="M11.9998 6.35205C8.70171 6.35205 6.01868 9.03527 6.01868 12.3332C6.01868 15.6313 8.70171 18.3145 11.9998 18.3145C15.2977 18.3145 17.9809 15.6313 17.9809 12.3332C17.9809 9.03527 15.2977 6.35205 11.9998 6.35205ZM11.9998 16.906C9.47826 16.906 7.42694 14.8547 7.42694 12.3332C7.42694 9.81164 9.47826 7.76031 11.9998 7.76031C14.5212 7.76031 16.5725 9.81164 16.5725 12.3332C16.5725 14.8547 14.5212 16.906 11.9998 16.906Z" fill="#AE9F91"/>
<path d="M13.7188 10.4764L10.9407 13.2545L10.1867 12.5005C9.91163 12.2254 9.46577 12.2254 9.19075 12.5005C8.91591 12.7755 8.91591 13.2214 9.19075 13.4962L10.4428 14.7483C10.5803 14.8858 10.7605 14.9544 10.9407 14.9544C11.1209 14.9544 11.301 14.8858 11.4385 14.7483L14.7147 11.4721C14.9895 11.1971 14.9895 10.7513 14.7147 10.4764C14.4396 10.2012 13.9938 10.2012 13.7188 10.4764Z" fill="#AE9F91"/>
</g>
<defs>
<clipPath id="clip0_573_369">
<rect width="24" height="24" fill="white" transform="translate(0 0.333008)"/>
</clipPath>
</defs>
</svg>

<svg xmlns="http://www.w3.org/2000/svg" fill="none" viewBox="0 0 24 25"><g fill="#ae9f91" clip-path="url(#a)"><path d="m22.195 6.845-.001-.019c-.01-.23-.017-.474-.022-.746a2.544 2.544 0 0 0-2.395-2.492c-2.759-.154-4.894-1.053-6.718-2.831l-.015-.015a1.536 1.536 0 0 0-2.088 0l-.015.015C9.117 2.535 6.982 3.434 4.223 3.589A2.543 2.543 0 0 0 1.828 6.08c-.004.27-.011.513-.022.745v.044c-.054 2.813-.121 6.315 1.05 9.494.645 1.748 1.62 3.267 2.9 4.516 1.457 1.422 3.366 2.552 5.674 3.356a1.8 1.8 0 0 0 .57.097 1.7 1.7 0 0 0 .571-.097c2.305-.806 4.212-1.936 5.668-3.358 1.28-1.25 2.255-2.77 2.9-4.518 1.176-3.188 1.11-6.696 1.056-9.515m-2.378 9.028c-1.235 3.35-3.757 5.651-7.71 7.033l-.045.013a.3.3 0 0 1-.168-.013c-3.958-1.38-6.481-3.679-7.716-7.03-1.08-2.929-1.019-6.144-.965-8.98V6.88c.012-.244.019-.5.023-.78a1.13 1.13 0 0 1 1.065-1.106c1.562-.087 2.934-.39 4.194-.923s2.377-1.284 3.418-2.296a.13.13 0 0 1 .174 0c1.041 1.012 2.16 1.763 3.418 2.296 1.26.534 2.632.836 4.194.923A1.13 1.13 0 0 1 20.764 6.1c.005.282.012.538.023.78.054 2.839.113 6.056-.97 8.992"/><path d="M12 6.352a5.99 5.99 0 0 0-5.981 5.981 5.99 5.99 0 0 0 5.98 5.981 5.99 5.99 0 0 0 5.982-5.98A5.99 5.99 0 0 0 12 6.351m0 10.554a4.58 4.58 0 0 1-4.573-4.573A4.58 4.58 0 0 1 12 7.76a4.58 4.58 0 0 1 4.573 4.573A4.58 4.58 0 0 1 12 16.906"/><path d="m13.719 10.476-2.778 2.778-.754-.753a.704.704 0 1 0-.996.995l1.252 1.252a.7.7 0 0 0 .995 0l3.277-3.276a.704.704 0 0 0-.996-.996"/></g><defs><clipPath id="a"><path fill="#fff" d="M0 .333h24v24H0z"/></clipPath></defs></svg>
